badges/deezer-dark.svg

<svg width="106" height="40" viewBox="0 0 106 40" fill="none" xmlns="http://www.w3.org/2000/svg">
<rect x="0.5" y="0.5" width="105" height="39" rx="4.5" fill="black"/>
<path d="M10.5247 29.4753C8.68315 27.6337 8 24.6337 8 20C8 15.3663 8.68315 12.3662 10.5247 10.5247C12.3662 8.68315 15.3663 8 20 8C24.6337 8 27.6337 8.68315 29.4753 10.5247C31.3168 12.3662 32 15.3663 32 20C32 24.6337 31.3168 27.6337 29.4753 29.4753C27.6337 31.3168 24.6337 32 20 32C15.3663 32 12.3662 31.3168 10.5247 29.4753Z" fill="#191919"/>
<path d="M28.8377 14.2438H25.0262V16.4671H28.8377V14.2438Z" fill="#29AB70"/>
<path d="M28.8377 17.3409H25.0262V19.5643H28.8377V17.3409Z" fill="url(#paint0_linear_101_7984)"/>
<path d="M28.8377 20.4364H25.0262V22.6597H28.8377V20.4364Z" fill="url(#paint1_linear_101_7984)"/>
<path d="M15.0241 23.5336H11.2126V25.7569H15.0241V23.5336Z" fill="url(#paint2_linear_101_7984)"/>
<path d="M19.6267 23.5336H15.8153V25.7569H19.6267V23.5336Z" fill="url(#paint3_linear_101_7984)"/>
<path d="M24.2332 23.5336H20.4218V25.7569H24.2332V23.5336Z" fill="url(#paint4_linear_101_7984)"/>
<path d="M28.8377 23.5336H25.0262V25.7569H28.8377V23.5336Z" fill="url(#paint5_linear_101_7984)"/>
<path d="M24.2332 20.4364H20.4218V22.6597H24.2332V20.4364Z" fill="url(#paint6_linear_101_7984)"/>
<path d="M19.6267 20.4364H15.8153V22.6597H19.6267V20.4364Z" fill="url(#paint7_linear_101_7984)"/>
<path d="M19.6267 17.3409H15.8153V19.5643H19.6267V17.3409Z" fill="url(#paint8_linear_101_7984)"/>
<path d="M39.7486 14.5V8.31818H40.4972V13.8359H43.3707V14.5H39.7486ZM44.4332 14.5V9.86364H45.1456V14.5H44.4332ZM44.7955 9.09091C44.6566 9.09091 44.5369 9.04362 44.4363 8.94904C44.3377 8.85446 44.2884 8.74077 44.2884 8.60795C44.2884 8.47514 44.3377 8.36145 44.4363 8.26687C44.5369 8.17229 44.6566 8.125 44.7955 8.125C44.9343 8.125 45.053 8.17229 45.1516 8.26687C45.2522 8.36145 45.3026 8.47514 45.3026 8.60795C45.3026 8.74077 45.2522 8.85446 45.1516 8.94904C45.053 9.04362 44.9343 9.09091 44.7955 9.09091ZM49.7344 10.902L49.0945 11.0831C49.0543 10.9764 48.9949 10.8728 48.9164 10.7722C48.8399 10.6696 48.7353 10.585 48.6025 10.5186C48.4697 10.4522 48.2996 10.419 48.0924 10.419C47.8086 10.419 47.5722 10.4844 47.383 10.6152C47.1959 10.744 47.1023 10.908 47.1023 11.1072C47.1023 11.2843 47.1667 11.4242 47.2955 11.5268C47.4243 11.6294 47.6255 11.715 47.8992 11.7834L48.5874 11.9524C49.0019 12.053 49.3108 12.207 49.5141 12.4142C49.7173 12.6195 49.8189 12.8841 49.8189 13.2081C49.8189 13.4737 49.7425 13.7112 49.5895 13.9205C49.4386 14.1297 49.2273 14.2947 48.9557 14.4155C48.684 14.5362 48.3681 14.5966 48.0079 14.5966C47.535 14.5966 47.1436 14.494 46.8337 14.2887C46.5238 14.0835 46.3276 13.7836 46.2451 13.3892L46.9212 13.2202C46.9856 13.4697 47.1073 13.6568 47.2864 13.7816C47.4676 13.9064 47.704 13.9688 47.9958 13.9688C48.3278 13.9688 48.5914 13.8983 48.7866 13.7575C48.9838 13.6146 49.0824 13.4435 49.0824 13.2443C49.0824 13.0833 49.0261 12.9485 48.9134 12.8398C48.8007 12.7292 48.6276 12.6467 48.3942 12.5923L47.6215 12.4112C47.1969 12.3106 46.885 12.1547 46.6858 11.9434C46.4886 11.7301 46.39 11.4634 46.39 11.1435C46.39 10.8819 46.4634 10.6504 46.6103 10.4492C46.7592 10.248 46.9615 10.09 47.217 9.97532C47.4746 9.86062 47.7664 9.80327 48.0924 9.80327C48.5512 9.80327 48.9114 9.90388 49.173 10.1051C49.4366 10.3063 49.6237 10.572 49.7344 10.902ZM52.9076 9.86364V10.4673H50.5049V9.86364H52.9076ZM51.2052 8.75284H51.9175V13.1719C51.9175 13.3731 51.9467 13.524 52.0051 13.6246C52.0654 13.7232 52.1419 13.7897 52.2345 13.8239C52.329 13.8561 52.4287 13.8722 52.5333 13.8722C52.6118 13.8722 52.6762 13.8681 52.7265 13.8601C52.7768 13.85 52.817 13.842 52.8472 13.8359L52.9921 14.4759C52.9438 14.494 52.8764 14.5121 52.7899 14.5302C52.7033 14.5503 52.5937 14.5604 52.4608 14.5604C52.2596 14.5604 52.0624 14.5171 51.8692 14.4306C51.6781 14.344 51.5191 14.2122 51.3923 14.0352C51.2675 13.8581 51.2052 13.6347 51.2052 13.3651V8.75284ZM55.8732 14.5966C55.4265 14.5966 55.0411 14.498 54.7172 14.3008C54.3952 14.1016 54.1467 13.8239 53.9716 13.4677C53.7985 13.1095 53.712 12.6929 53.712 12.218C53.712 11.7431 53.7985 11.3246 53.9716 10.9624C54.1467 10.5981 54.3902 10.3144 54.7021 10.1112C55.016 9.90589 55.3822 9.80327 55.8008 9.80327C56.0423 9.80327 56.2807 9.84351 56.5162 9.92401C56.7516 10.0045 56.9659 10.1353 57.1591 10.3164C57.3523 10.4955 57.5062 10.733 57.6209 11.0288C57.7356 11.3246 57.793 11.6888 57.793 12.1214V12.4233H54.2191V11.8075H57.0685C57.0685 11.5459 57.0162 11.3125 56.9116 11.1072C56.8089 10.902 56.6621 10.74 56.4709 10.6213C56.2817 10.5025 56.0584 10.4432 55.8008 10.4432C55.517 10.4432 55.2715 10.5136 55.0643 10.6545C54.859 10.7933 54.7011 10.9744 54.5904 11.1978C54.4797 11.4212 54.4244 11.6606 54.4244 11.9162V12.3267C54.4244 12.6768 54.4847 12.9737 54.6055 13.2172C54.7282 13.4586 54.8983 13.6428 55.1156 13.7695C55.3329 13.8943 55.5855 13.9567 55.8732 13.9567C56.0604 13.9567 56.2294 13.9305 56.3803 13.8782C56.5333 13.8239 56.6651 13.7434 56.7757 13.6367C56.8864 13.5281 56.9719 13.3932 57.0323 13.2322L57.7205 13.4254C57.6481 13.6589 57.5263 13.8641 57.3553 14.0412C57.1842 14.2163 56.973 14.3531 56.7214 14.4517C56.4699 14.5483 56.1871 14.5966 55.8732 14.5966ZM59.589 11.7109V14.5H58.8766V9.86364H59.5648V10.5881H59.6252C59.7338 10.3526 59.8989 10.1635 60.1202 10.0206C60.3416 9.87571 60.6273 9.80327 60.9775 9.80327C61.2914 9.80327 61.5661 9.86766 61.8015 9.99645C62.0369 10.1232 62.2201 10.3164 62.3509 10.576C62.4817 10.8336 62.5471 11.1596 62.5471 11.554V14.5H61.8347V11.6023C61.8347 11.238 61.7401 10.9543 61.551 10.7511C61.3618 10.5458 61.1022 10.4432 60.7722 10.4432C60.5448 10.4432 60.3416 10.4925 60.1625 10.5911C59.9854 10.6897 59.8455 10.8336 59.7429 11.0227C59.6403 11.2119 59.589 11.4413 59.589 11.7109ZM68.1229 14.5966C67.7044 14.5966 67.3371 14.497 67.0212 14.2978C66.7073 14.0985 66.4618 13.8198 66.2847 13.4616C66.1096 13.1035 66.0221 12.6849 66.0221 12.206C66.0221 11.723 66.1096 11.3014 66.2847 10.9412C66.4618 10.581 66.7073 10.3013 67.0212 10.1021C67.3371 9.90288 67.7044 9.80327 68.1229 9.80327C68.5415 9.80327 68.9077 9.90288 69.2216 10.1021C69.5376 10.3013 69.7831 10.581 69.9581 10.9412C70.1352 11.3014 70.2238 11.723 70.2238 12.206C70.2238 12.6849 70.1352 13.1035 69.9581 13.4616C69.7831 13.8198 69.5376 14.0985 69.2216 14.2978C68.9077 14.497 68.5415 14.5966 68.1229 14.5966ZM68.1229 13.9567C68.4409 13.9567 68.7025 13.8752 68.9077 13.7122C69.113 13.5492 69.2649 13.3349 69.3635 13.0692C69.4621 12.8036 69.5114 12.5159 69.5114 12.206C69.5114 11.8961 69.4621 11.6073 69.3635 11.3397C69.2649 11.072 69.113 10.8557 68.9077 10.6907C68.7025 10.5257 68.4409 10.4432 68.1229 10.4432C67.805 10.4432 67.5434 10.5257 67.3381 10.6907C67.1329 10.8557 66.9809 11.072 66.8823 11.3397C66.7837 11.6073 66.7344 11.8961 66.7344 12.206C66.7344 12.5159 66.7837 12.8036 66.8823 13.0692C66.9809 13.3349 67.1329 13.5492 67.3381 13.7122C67.5434 13.8752 67.805 13.9567 68.1229 13.9567ZM72.0235 11.7109V14.5H71.3112V9.86364H71.9994V10.5881H72.0597C72.1684 10.3526 72.3334 10.1635 72.5548 10.0206C72.7761 9.87571 73.0619 9.80327 73.412 9.80327C73.7259 9.80327 74.0006 9.86766 74.2361 9.99645C74.4715 10.1232 74.6546 10.3164 74.7854 10.576C74.9162 10.8336 74.9816 11.1596 74.9816 11.554V14.5H74.2693V11.6023C74.2693 11.238 74.1747 10.9543 73.9855 10.7511C73.7964 10.5458 73.5368 10.4432 73.2068 10.4432C72.9794 10.4432 72.7761 10.4925 72.597 10.5911C72.42 10.6897 72.2801 10.8336 72.1775 11.0227C72.0748 11.2119 72.0235 11.4413 72.0235 11.7109Z" fill="white"/>
<path d="M43.4688 30.5H39.5412V17.7727H43.6428C44.8774 17.7727 45.9338 18.0275 46.8121 18.5371C47.6905 19.0426 48.3637 19.7696 48.8319 20.7184C49.3 21.663 49.5341 22.794 49.5341 24.1115C49.5341 25.4373 49.2979 26.5787 48.8256 27.5357C48.3533 28.4886 47.6656 29.2219 46.7624 29.7356C45.8593 30.2452 44.7614 30.5 43.4688 30.5ZM41.0824 29.1328H43.3693C44.4216 29.1328 45.2937 28.9298 45.9856 28.5238C46.6775 28.1178 47.1933 27.5398 47.533 26.79C47.8728 26.0401 48.0426 25.1473 48.0426 24.1115C48.0426 23.084 47.8748 22.1995 47.5392 21.4579C47.2037 20.7122 46.7024 20.1404 46.0353 19.7427C45.3683 19.3408 44.5376 19.1399 43.5433 19.1399H41.0824V29.1328ZM55.6726 30.6989C54.7528 30.6989 53.9595 30.4959 53.2924 30.0898C52.6296 29.6797 52.1179 29.108 51.7575 28.3746C51.4012 27.6372 51.223 26.7796 51.223 25.8018C51.223 24.8241 51.4012 23.9624 51.7575 23.2166C52.1179 22.4667 52.6192 21.8826 53.2614 21.4641C53.9077 21.0415 54.6617 20.8303 55.5234 20.8303C56.0206 20.8303 56.5115 20.9131 56.9963 21.0788C57.481 21.2446 57.9222 21.5138 58.32 21.8867C58.7177 22.2554 59.0346 22.7443 59.2708 23.3533C59.5069 23.9624 59.625 24.7122 59.625 25.603V26.2244H52.267V24.9567H58.1335C58.1335 24.4181 58.0258 23.9375 57.8104 23.5149C57.5991 23.0923 57.2966 22.7588 56.9031 22.5144C56.5136 22.2699 56.0537 22.1477 55.5234 22.1477C54.9393 22.1477 54.4338 22.2927 54.0071 22.5827C53.5845 22.8686 53.2593 23.2415 53.0314 23.7013C52.8036 24.1612 52.6896 24.6542 52.6896 25.1804V26.0256C52.6896 26.7464 52.8139 27.3575 53.0625 27.8588C53.3152 28.356 53.6653 28.7351 54.1127 28.9961C54.5602 29.253 55.0801 29.3814 55.6726 29.3814C56.0579 29.3814 56.4059 29.3275 56.7166 29.2198C57.0315 29.108 57.3029 28.9422 57.5307 28.7227C57.7586 28.4989 57.9347 28.2214 58.0589 27.8899L59.4759 28.2876C59.3267 28.7682 59.0761 29.1908 58.7239 29.5554C58.3717 29.9158 57.9367 30.1976 57.4189 30.4006C56.901 30.5994 56.3189 30.6989 55.6726 30.6989ZM65.6081 30.6989C64.6884 30.6989 63.895 30.4959 63.228 30.0898C62.5651 29.6797 62.0534 29.108 61.693 28.3746C61.3367 27.6372 61.1586 26.7796 61.1586 25.8018C61.1586 24.8241 61.3367 23.9624 61.693 23.2166C62.0534 22.4667 62.5547 21.8826 63.1969 21.4641C63.8432 21.0415 64.5972 20.8303 65.459 20.8303C65.9561 20.8303 66.4471 20.9131 66.9318 21.0788C67.4165 21.2446 67.8578 21.5138 68.2555 21.8867C68.6532 22.2554 68.9702 22.7443 69.2063 23.3533C69.4425 23.9624 69.5605 24.7122 69.5605 25.603V26.2244H62.2026V24.9567H68.0691C68.0691 24.4181 67.9614 23.9375 67.7459 23.5149C67.5346 23.0923 67.2322 22.7588 66.8386 22.5144C66.4492 22.2699 65.9893 22.1477 65.459 22.1477C64.8748 22.1477 64.3694 22.2927 63.9426 22.5827C63.5201 22.8686 63.1948 23.2415 62.967 23.7013C62.7391 24.1612 62.6252 24.6542 62.6252 25.1804V26.0256C62.6252 26.7464 62.7495 27.3575 62.998 27.8588C63.2508 28.356 63.6009 28.7351 64.0483 28.9961C64.4957 29.253 65.0157 29.3814 65.6081 29.3814C65.9934 29.3814 66.3414 29.3275 66.6522 29.2198C66.967 29.108 67.2384 28.9422 67.4663 28.7227C67.6941 28.4989 67.8702 28.2214 67.9945 27.8899L69.4114 28.2876C69.2623 28.7682 69.0116 29.1908 68.6594 29.5554C68.3073 29.9158 67.8723 30.1976 67.3544 30.4006C66.8365 30.5994 66.2544 30.6989 65.6081 30.6989ZM71.2681 30.5V29.3814L76.6871 22.4212V22.3217H71.4421V20.9545H78.5763V22.1229L73.3065 29.0334V29.1328H78.7504V30.5H71.2681ZM84.488 30.6989C83.5683 30.6989 82.7749 30.4959 82.1079 30.0898C81.445 29.6797 80.9333 29.108 80.5729 28.3746C80.2166 27.6372 80.0384 26.7796 80.0384 25.8018C80.0384 24.8241 80.2166 23.9624 80.5729 23.2166C80.9333 22.4667 81.4346 21.8826 82.0768 21.4641C82.7231 21.0415 83.4771 20.8303 84.3389 20.8303C84.836 20.8303 85.327 20.9131 85.8117 21.0788C86.2964 21.2446 86.7377 21.5138 87.1354 21.8867C87.5331 22.2554 87.8501 22.7443 88.0862 23.3533C88.3224 23.9624 88.4404 24.7122 88.4404 25.603V26.2244H81.0825V24.9567H86.949C86.949 24.4181 86.8412 23.9375 86.6258 23.5149C86.4145 23.0923 86.1121 22.7588 85.7185 22.5144C85.329 22.2699 84.8692 22.1477 84.3389 22.1477C83.7547 22.1477 83.2493 22.2927 82.8225 22.5827C82.3999 22.8686 82.0747 23.2415 81.8469 23.7013C81.619 24.1612 81.5051 24.6542 81.5051 25.1804V26.0256C81.5051 26.7464 81.6294 27.3575 81.8779 27.8588C82.1307 28.356 82.4807 28.7351 82.9282 28.9961C83.3756 29.253 83.8956 29.3814 84.488 29.3814C84.8733 29.3814 85.2213 29.3275 85.532 29.2198C85.8469 29.108 86.1183 28.9422 86.3461 28.7227C86.574 28.4989 86.7501 28.2214 86.8744 27.8899L88.2913 28.2876C88.1421 28.7682 87.8915 29.1908 87.5393 29.5554C87.1872 29.9158 86.7522 30.1976 86.2343 30.4006C85.7164 30.5994 85.1343 30.6989 84.488 30.6989ZM90.4214 30.5V20.9545H91.8383V22.3963H91.9378C92.1118 21.924 92.4266 21.5408 92.8824 21.2466C93.3381 20.9525 93.8518 20.8054 94.4236 20.8054C94.5313 20.8054 94.6659 20.8075 94.8275 20.8116C94.9891 20.8158 95.1113 20.822 95.1942 20.8303V22.3217C95.1444 22.3093 95.0305 22.2907 94.8524 22.2658C94.6784 22.2368 94.494 22.2223 94.2993 22.2223C93.8353 22.2223 93.421 22.3197 93.0564 22.5144C92.6959 22.705 92.4101 22.9701 92.1988 23.3098C91.9916 23.6454 91.8881 24.0286 91.8881 24.4595V30.5H90.4214Z" fill="white"/>
<rect x="0.5" y="0.5" width="105" height="39" rx="4.5" stroke="#A6A6A6"/>
<defs>
<linearGradient id="paint0_linear_101_7984" x1="27.1798" y1="19.8562" x2="26.6841" y2="17.0472" gradientUnits="userSpaceOnUse">
<stop stop-color="#2C8C9D"/>
<stop offset="0.04" stop-color="#298E9A"/>
<stop offset="0.39" stop-color="#129C83"/>
<stop offset="0.72" stop-color="#05A475"/>
<stop offset="1" stop-color="#00A770"/>
</linearGradient>
<linearGradient id="paint1_linear_101_7984" x1="24.9693" y1="22.5477" x2="28.8946" y2="20.5466" gradientUnits="userSpaceOnUse">
<stop stop-color="#2839BA"/>
<stop offset="1" stop-color="#148CB3"/>
</linearGradient>
<linearGradient id="paint2_linear_101_7984" x1="11.2126" y1="24.6443" x2="15.0241" y2="24.6443" gradientUnits="userSpaceOnUse">
<stop stop-color="#F6A500"/>
<stop offset="1" stop-color="#F29100"/>
</linearGradient>
<linearGradient id="paint3_linear_101_7984" x1="15.8171" y1="24.6443" x2="19.6267" y2="24.6443" gradientUnits="userSpaceOnUse">
<stop stop-color="#F29100"/>
<stop offset="1" stop-color="#D12F5F"/>
</linearGradient>
<linearGradient id="paint4_linear_101_7984" x1="20.4218" y1="24.6443" x2="24.2332" y2="24.6443" gradientUnits="userSpaceOnUse">
<stop stop-color="#B4197C"/>
<stop offset="1" stop-color="#472EAD"/>
</linearGradient>
<linearGradient id="paint5_linear_101_7984" x1="25.0262" y1="24.6443" x2="28.8377" y2="24.6443" gradientUnits="userSpaceOnUse">
<stop stop-color="#2839BA"/>
<stop offset="1" stop-color="#3072B7"/>
</linearGradient>
<linearGradient id="paint6_linear_101_7984" x1="20.273" y1="22.1475" x2="24.3837" y2="20.9468" gradientUnits="userSpaceOnUse">
<stop stop-color="#B4197C"/>
<stop offset="1" stop-color="#373AAC"/>
</linearGradient>
<linearGradient id="paint7_linear_101_7984" x1="15.6831" y1="20.8054" x2="19.7626" y2="22.2889" gradientUnits="userSpaceOnUse">
<stop stop-color="#FFCB00"/>
<stop offset="1" stop-color="#D12F5F"/>
</linearGradient>
<linearGradient id="paint8_linear_101_7984" x1="16.1384" y1="16.9903" x2="19.3054" y2="19.9131" gradientUnits="userSpaceOnUse">
<stop stop-color="#FFCF00"/>
<stop offset="1" stop-color="#ED743B"/>
</linearGradient>
</defs>
</svg>

<svg xmlns="http://www.w3.org/2000/svg" width="106" height="40" fill="none" viewBox="0 0 106 40">
  <rect width="105" height="39" x=".5" y=".5" fill="#000" rx="4.5"/>
  <rect width="105" height="39" x=".5" y=".5" stroke="#A6A6A6" rx="4.5"/>
  <path fill="#29AB70" d="M32.025 12.162h-5.19v3.027h5.19v-3.027Z"/>
  <path fill="url(#a)" d="M32.025 16.38h-5.19v3.027h5.19v-3.028Z"/>
  <path fill="url(#b)" d="M32.025 20.594h-5.19v3.028h5.19v-3.028Z"/>
  <path fill="url(#c)" d="M13.215 24.812h-5.19v3.027h5.19v-3.027Z"/>
  <path fill="url(#d)" d="M19.483 24.812h-5.19v3.027h5.19v-3.027Z"/>
  <path fill="url(#e)" d="M25.755 24.812h-5.19v3.027h5.19v-3.027Z"/>
  <path fill="url(#f)" d="M32.025 24.812h-5.19v3.027h5.19v-3.027Z"/>
  <path fill="url(#g)" d="M25.755 20.594h-5.19v3.028h5.19v-3.028Z"/>
  <path fill="url(#h)" d="M19.483 20.594h-5.19v3.028h5.19v-3.028Z"/>
  <path fill="url(#i)" d="M19.483 16.38h-5.19v3.027h5.19v-3.028Z"/>
  <path fill="#fff" d="M39.749 14.5V8.318h.748v5.518h2.874v.664h-3.622Zm4.684 0V9.864h.713V14.5h-.713Zm.362-5.41a.506.506 0 0 1-.359-.141.456.456 0 0 1-.148-.341c0-.133.05-.247.148-.341.1-.095.22-.142.36-.142.138 0 .257.047.356.142.1.094.15.208.15.341 0 .133-.05.246-.15.341a.496.496 0 0 1-.357.142Zm4.94 1.812-.64.181c-.04-.107-.1-.21-.179-.31a.865.865 0 0 0-.313-.254 1.14 1.14 0 0 0-.51-.1c-.284 0-.52.065-.71.196-.187.129-.28.293-.28.492a.51.51 0 0 0 .192.42c.13.102.33.188.604.256l.688.17c.415.1.724.254.927.461.203.206.305.47.305.794 0 .266-.077.503-.23.713-.15.209-.362.374-.633.495a2.33 2.33 0 0 1-.948.18c-.473 0-.864-.102-1.174-.307-.31-.205-.506-.505-.589-.9l.676-.169c.065.25.186.437.365.562.182.124.418.187.71.187.332 0 .595-.07.79-.211.198-.143.296-.314.296-.514a.54.54 0 0 0-.169-.404c-.112-.11-.285-.193-.519-.248l-.773-.18c-.424-.101-.736-.257-.935-.469a1.133 1.133 0 0 1-.296-.8c0-.261.073-.493.22-.694a1.5 1.5 0 0 1 .607-.474 2.13 2.13 0 0 1 .875-.172c.46 0 .82.1 1.081.302.264.201.45.467.561.797Zm3.173-1.038v.603h-2.403v-.603h2.403Zm-1.703-1.111h.712v4.419c0 .201.03.352.088.453.06.098.137.165.23.199a.92.92 0 0 0 .298.048c.079 0 .143-.004.194-.012l.12-.024.145.64a1.491 1.491 0 0 1-.531.085c-.201 0-.399-.044-.592-.13a1.177 1.177 0 0 1-.477-.396c-.125-.177-.187-.4-.187-.67V8.753Zm4.668 5.844c-.447 0-.832-.099-1.156-.296a1.99 1.99 0 0 1-.745-.833c-.174-.358-.26-.775-.26-1.25s.086-.893.26-1.256c.175-.364.418-.648.73-.85.314-.206.68-.309 1.099-.309.241 0 .48.04.715.121.236.08.45.211.643.392.193.18.347.417.462.713.115.296.172.66.172 1.092v.302h-3.574v-.616h2.85a1.52 1.52 0 0 0-.157-.7 1.183 1.183 0 0 0-.441-.486 1.234 1.234 0 0 0-.67-.178c-.284 0-.53.07-.737.212a1.39 1.39 0 0 0-.474.543c-.11.223-.166.463-.166.718v.41c0 .35.06.648.181.891.123.242.293.426.51.553.218.124.47.187.758.187.187 0 .356-.027.507-.079.153-.054.285-.135.396-.241.11-.109.196-.244.256-.405l.689.193a1.526 1.526 0 0 1-.366.616 1.78 1.78 0 0 1-.634.41 2.35 2.35 0 0 1-.848.146Zm3.716-2.886V14.5h-.712V9.864h.688v.724h.06a1.33 1.33 0 0 1 .495-.567c.222-.145.507-.218.858-.218.313 0 .588.065.823.193.236.127.42.32.55.58.13.258.196.584.196.978V14.5h-.712v-2.898c0-.364-.095-.648-.284-.85-.19-.206-.449-.309-.779-.309-.227 0-.43.05-.61.148a1.058 1.058 0 0 0-.42.432 1.43 1.43 0 0 0-.153.688Zm8.534 2.886c-.419 0-.786-.1-1.102-.3a2.018 2.018 0 0 1-.736-.835c-.175-.358-.263-.777-.263-1.256 0-.483.088-.905.263-1.265.177-.36.422-.64.736-.839.316-.2.683-.299 1.102-.299.418 0 .785.1 1.099.3.316.198.561.478.736.838.177.36.266.782.266 1.265 0 .479-.089.898-.266 1.256-.175.358-.42.636-.736.836a2.01 2.01 0 0 1-1.1.299Zm0-.64c.318 0 .58-.082.785-.245a1.44 1.44 0 0 0 .456-.643 2.47 2.47 0 0 0 .147-.863c0-.31-.049-.599-.147-.866a1.46 1.46 0 0 0-.456-.65c-.206-.164-.467-.247-.785-.247s-.58.083-.785.248a1.46 1.46 0 0 0-.456.649 2.487 2.487 0 0 0-.148.866c0 .31.05.598.148.863.099.266.25.48.456.643.205.163.467.245.785.245Zm3.9-2.246V14.5h-.712V9.864H72v.724h.06c.11-.235.274-.424.496-.567.221-.145.507-.218.857-.218.314 0 .589.065.824.193a1.3 1.3 0 0 1 .55.58c.13.258.196.584.196.978V14.5h-.713v-2.898c0-.364-.094-.648-.284-.85-.189-.206-.448-.309-.778-.309-.228 0-.43.05-.61.148a1.059 1.059 0 0 0-.42.432 1.43 1.43 0 0 0-.154.688ZM43.469 30.5H39.54V17.773h4.102c1.234 0 2.29.255 3.17.764.877.506 1.55 1.233 2.019 2.181.468.945.702 2.076.702 3.393 0 1.326-.236 2.468-.708 3.425a5.047 5.047 0 0 1-2.064 2.2c-.903.51-2 .764-3.293.764Zm-2.387-1.367h2.287c1.053 0 1.925-.203 2.617-.61a3.753 3.753 0 0 0 1.547-1.733c.34-.75.51-1.643.51-2.678 0-1.028-.168-1.912-.504-2.654-.335-.746-.837-1.318-1.504-1.715-.667-.402-1.497-.603-2.492-.603h-2.46v9.993Zm14.59 1.566c-.92 0-1.712-.203-2.38-.61a4.087 4.087 0 0 1-1.535-1.714c-.356-.738-.534-1.595-.534-2.573s.178-1.84.535-2.585c.36-.75.861-1.334 1.503-1.753.647-.422 1.4-.634 2.262-.634.498 0 .988.083 1.473.249a3.65 3.65 0 0 1 1.324.808c.398.368.715.857.95 1.466.237.61.355 1.36.355 2.25v.621h-7.358v-1.267h5.866a3.13 3.13 0 0 0-.323-1.442 2.435 2.435 0 0 0-.907-1c-.39-.245-.85-.367-1.38-.367-.584 0-1.09.145-1.516.435a2.862 2.862 0 0 0-.976 1.118c-.227.46-.341.953-.341 1.48v.845c0 .72.124 1.332.373 1.833a2.69 2.69 0 0 0 1.05 1.137c.447.257.967.385 1.56.385.385 0 .733-.053 1.044-.161.315-.112.586-.278.814-.497a2.26 2.26 0 0 0 .528-.833l1.417.398c-.15.48-.4.903-.752 1.267a3.67 3.67 0 0 1-1.305.846c-.518.198-1.1.298-1.746.298Zm9.936 0c-.92 0-1.713-.203-2.38-.61a4.087 4.087 0 0 1-1.535-1.714c-.356-.738-.534-1.595-.534-2.573s.178-1.84.534-2.585c.36-.75.862-1.334 1.504-1.753.646-.422 1.4-.634 2.262-.634.497 0 .988.083 1.473.249a3.65 3.65 0 0 1 1.323.808c.398.368.715.857.951 1.466.236.61.355 1.36.355 2.25v.621h-7.358v-1.267h5.866c0-.539-.108-1.02-.323-1.442a2.435 2.435 0 0 0-.907-1c-.39-.245-.85-.367-1.38-.367-.584 0-1.09.145-1.516.435a2.862 2.862 0 0 0-.976 1.118c-.228.46-.342.953-.342 1.48v.845c0 .72.124 1.332.373 1.833a2.69 2.69 0 0 0 1.05 1.137c.448.257.968.385 1.56.385.385 0 .733-.053 1.044-.161.315-.112.586-.278.814-.497a2.26 2.26 0 0 0 .529-.833l1.416.398c-.149.48-.4.903-.752 1.267a3.67 3.67 0 0 1-1.305.846c-.517.198-1.1.298-1.746.298Zm5.66-.199v-1.119l5.42-6.96v-.1h-5.246v-1.367h7.134v1.169l-5.27 6.91v.1h5.444V30.5h-7.482Zm13.22.199c-.92 0-1.713-.203-2.38-.61a4.087 4.087 0 0 1-1.535-1.714c-.356-.738-.535-1.595-.535-2.573s.179-1.84.535-2.585c.36-.75.862-1.334 1.504-1.753.646-.422 1.4-.634 2.262-.634.497 0 .988.083 1.473.249a3.65 3.65 0 0 1 1.323.808c.398.368.715.857.951 1.466.236.61.354 1.36.354 2.25v.621h-7.358v-1.267h5.867a3.13 3.13 0 0 0-.323-1.442 2.435 2.435 0 0 0-.907-1c-.39-.245-.85-.367-1.38-.367-.584 0-1.09.145-1.516.435a2.861 2.861 0 0 0-.976 1.118c-.228.46-.342.953-.342 1.48v.845c0 .72.124 1.332.373 1.833a2.69 2.69 0 0 0 1.05 1.137c.448.257.968.385 1.56.385.385 0 .733-.053 1.044-.161.315-.112.586-.278.814-.497a2.26 2.26 0 0 0 .528-.833l1.417.398c-.149.48-.4.903-.752 1.267a3.67 3.67 0 0 1-1.305.846c-.518.198-1.1.298-1.746.298Zm5.933-.199v-9.546h1.417v1.442h.1c.174-.472.489-.855.944-1.15a2.78 2.78 0 0 1 1.542-.44c.107 0 .242.002.403.006.162.004.284.01.367.018v1.492a4.407 4.407 0 0 0-.342-.056 3.364 3.364 0 0 0-.553-.044c-.464 0-.878.098-1.243.292-.36.191-.646.456-.857.796-.207.335-.31.719-.31 1.15v6.04H90.42Z"/>
  <defs>
    <linearGradient id="a" x1="29.768" x2="29.093" y1="19.804" y2="15.979" gradientUnits="userSpaceOnUse">
      <stop stop-color="#2C8C9D"/>
      <stop offset=".04" stop-color="#298E9A"/>
      <stop offset=".39" stop-color="#129C83"/>
      <stop offset=".72" stop-color="#05A475"/>
      <stop offset="1" stop-color="#00A770"/>
    </linearGradient>
    <linearGradient id="b" x1="26.758" x2="32.103" y1="23.469" y2="20.744" gradientUnits="userSpaceOnUse">
      <stop stop-color="#2839BA"/>
      <stop offset="1" stop-color="#148CB3"/>
    </linearGradient>
    <linearGradient id="c" x1="8.025" x2="13.215" y1="26.324" y2="26.324" gradientUnits="userSpaceOnUse">
      <stop stop-color="#F6A500"/>
      <stop offset="1" stop-color="#F29100"/>
    </linearGradient>
    <linearGradient id="d" x1="14.295" x2="19.483" y1="26.324" y2="26.324" gradientUnits="userSpaceOnUse">
      <stop stop-color="#F29100"/>
      <stop offset="1" stop-color="#D12F5F"/>
    </linearGradient>
    <linearGradient id="e" x1="20.565" x2="25.755" y1="26.324" y2="26.324" gradientUnits="userSpaceOnUse">
      <stop stop-color="#B4197C"/>
      <stop offset="1" stop-color="#472EAD"/>
    </linearGradient>
    <linearGradient id="f" x1="26.835" x2="32.025" y1="26.324" y2="26.324" gradientUnits="userSpaceOnUse">
      <stop stop-color="#2839BA"/>
      <stop offset="1" stop-color="#3072B7"/>
    </linearGradient>
    <linearGradient id="g" x1="20.363" x2="25.96" y1="22.924" y2="21.289" gradientUnits="userSpaceOnUse">
      <stop stop-color="#B4197C"/>
      <stop offset="1" stop-color="#373AAC"/>
    </linearGradient>
    <linearGradient id="h" x1="14.113" x2="19.668" y1="21.097" y2="23.117" gradientUnits="userSpaceOnUse">
      <stop stop-color="#FFCB00"/>
      <stop offset="1" stop-color="#D12F5F"/>
    </linearGradient>
    <linearGradient id="i" x1="14.733" x2="19.045" y1="15.902" y2="19.882" gradientUnits="userSpaceOnUse">
      <stop stop-color="#FFCF00"/>
      <stop offset="1" stop-color="#ED743B"/>
    </linearGradient>
  </defs>
</svg>
